swiss/communes/5856.svg

<svg xmlns="http://www.w3.org/2000/svg" xmlns:xlink="http://www.w3.org/1999/xlink" height="763" width="603" version="1.0"><defs><radialGradient xlink:href="#a" id="b" gradientUnits="userSpaceOnUse" gradientTransform="matrix(1.21503 0 0 1.26667 -839.192 -490.49)" cx="858.042" cy="579.933" fx="858.042" fy="579.933" r="300"/><linearGradient id="a"><stop style="stop-color:#fff;stop-opacity:.3137255" offset="0"/><stop offset=".19" style="stop-color:#fff;stop-opacity:.25098041"/><stop style="stop-color:#6b6b6b;stop-opacity:.1254902" offset=".6"/><stop style="stop-color:#000;stop-opacity:.1254902" offset="1"/></linearGradient></defs><g style="opacity:1"><path d="M1.5 1.5v458.869C1.5 626.68 135.814 761.5 301.5 761.5s300-134.82 300-301.131V1.5H1.5z" style="opacity:1;fill:#fcef3c"/><path style="opacity:1;fill:#5ab532" d="M1.5 1.5h600v249.688H1.5z"/></g><g style="opacity:1"><path d="M226.986 342.159c-41.087 41.087-41.087 107.94 0 149.028 41.086 41.087 107.94 41.087 149.026 0 41.087-41.088 41.087-107.941 0-149.028-41.086-41.086-107.94-41.086-149.026 0zm9.352 139.675c-35.929-35.931-35.929-94.392 0-130.322 35.929-35.929 94.391-35.929 130.322 0 17.963 17.965 26.947 41.562 26.947 65.161 0 23.598-8.984 47.194-26.948 65.161-35.929 35.929-94.391 35.929-130.321 0z"/><path d="M403.563 442.783a106.056 106.056 0 0 0-13.041-2.378c-30.977-3.664-63.28 6.362-86.999 30.078l-.001.001c-41.085 41.087-41.085 107.939 0 149.026 19.904 19.904 46.366 30.865 74.514 30.865 28.148 0 54.61-10.961 74.514-30.865 41.086-41.086 41.086-107.938.001-149.026-14.014-14.013-31.025-23.247-48.988-27.701zm-17.477 10.457a92.644 92.644 0 0 1 13.41 2.164c16.026 3.811 31.223 11.956 43.7 24.434 35.93 35.93 35.93 94.392 0 130.321-17.406 17.404-40.547 26.99-65.161 26.99-24.615 0-47.756-9.586-65.159-26.99-17.965-17.967-26.947-41.563-26.947-65.161 0-23.599 8.982-47.194 26.945-65.161 20.012-20.01 47.01-28.875 73.212-26.597z"/><path d="M150.449 470.483c-41.086 41.089-41.086 107.941 0 149.027 19.904 19.904 46.367 30.865 74.514 30.865s54.61-10.961 74.514-30.865c.686-.687 1.359-1.379 2.022-2.079a105.29 105.29 0 0 0 8.449-10.113c30.254-41.202 26.762-99.599-10.472-136.834l-.001-.001c-41.086-41.085-107.939-41.085-149.026 0zm9.353 139.676c-35.929-35.93-35.929-94.392 0-130.322 35.929-35.929 94.391-35.929 130.321 0 17.964 17.967 26.947 41.563 26.947 65.161 0 17.938-5.191 35.875-15.571 51.339a91.798 91.798 0 0 1-8.54 10.857 95.11 95.11 0 0 1-2.836 2.965c-17.405 17.404-40.546 26.99-65.16 26.99-24.614 0-47.755-9.586-65.161-26.99z"/><path d="M301.499 617.431c.663.7 1.337 1.393 2.022 2.079 19.904 19.904 46.366 30.865 74.514 30.865 28.148 0 54.61-10.961 74.514-30.865 41.086-41.086 41.086-107.938.001-149.026-14.013-14.013-31.023-23.247-48.987-27.701m-13.041-2.378c-30.977-3.664-63.28 6.362-86.999 30.078l-.001.001C266.326 507.681 262.805 566 292.96 607.195m8.539-10.86c-10.38-15.463-15.57-33.399-15.57-51.338 0-23.599 8.982-47.194 26.945-65.161 20.012-20.01 47.01-28.874 73.212-26.597m13.41 2.165c16.026 3.811 31.223 11.956 43.7 24.434 35.93 35.93 35.93 94.392 0 130.321-17.406 17.404-40.547 26.99-65.161 26.99-24.615 0-47.756-9.586-65.159-26.99a96.207 96.207 0 0 1-2.836-2.964" style="fill:none;stroke:#fcef3c;stroke-width:2.5"/><path d="M301.501 472.565a104.252 104.252 0 0 0-2.024-2.081l-.001-.001c-41.086-41.085-107.94-41.085-149.027 0-41.086 41.089-41.086 107.941 0 149.027 19.904 19.904 46.367 30.865 74.514 30.865s54.61-10.961 74.514-30.865c.686-.687 1.359-1.379 2.022-2.079a105.29 105.29 0 0 0 8.449-10.113c27.093-36.897 27.123-87.586.091-124.515m-8.54 10.855c10.38 15.463 15.571 33.402 15.571 51.34 0 17.938-5.191 35.875-15.571 51.339a91.798 91.798 0 0 1-8.54 10.857 95.11 95.11 0 0 1-2.836 2.965c-17.405 17.404-40.546 26.99-65.16 26.99-24.614 0-47.755-9.586-65.161-26.99-35.929-35.93-35.929-94.392 0-130.322 35.929-35.929 94.391-35.929 130.321 0a92.933 92.933 0 0 1 2.836 2.965" style="fill:none;stroke:#fcef3c;stroke-width:2.5"/><path d="M327.026 518.887c17.962-4.455 34.973-13.688 48.985-27.7 41.087-41.088 41.087-107.941 0-149.028-41.086-41.086-107.939-41.086-149.026 0-27.226 27.226-36.411 65.766-27.555 100.625m89.584 78.482c8.254.977 16.604.98 24.861.013M203.5 455.406c5.132 13.04 12.961 25.254 23.486 35.781 14.011 14.011 31.018 23.243 48.977 27.699m4.075-12.62c-16.025-3.81-31.221-11.954-43.699-24.432-8.476-8.477-14.952-18.206-19.429-28.598m92.639 55.196a93.27 93.27 0 0 1-16.099 0m-80.974-68.028c-8.133-30.719-.179-64.849 23.863-88.891 35.929-35.929 94.391-35.929 130.322 0 17.963 17.965 26.947 41.562 26.947 65.161 0 23.598-8.984 47.194-26.948 65.161-12.479 12.478-27.673 20.622-43.7 24.432" style="fill:none;stroke:#fcef3c;stroke-width:2.5"/><path style="fill:none;stroke:#000;stroke-width:3" d="M1.5 251.188h599.999"/><path style="fill:#fcef3c;stroke:#000;stroke-width:3" transform="translate(-.038 -.045)" d="m502.417 63.207-14.482-34.799-186.398 77.569-186.398-77.569-14.481 34.799 151.828 63.182-151.828 63.183 14.481 34.799 186.398-77.569 186.398 77.569 14.482-34.799-151.828-63.183 151.828-63.182z"/></g><g style="display:inline"><path style="fill:url(#b);fill-opacity:1" d="M1.5 1.5v458.868c0 166.31 134.315 301.132 300 301.132s300-134.821 300-301.132V1.5H1.5z"/></g><g style="display:inline"><path style="fill:none;fill-opacity:1;stroke:#000;stroke-width:3;stroke-miterlimit:4;stroke-dasharray:none;stroke-opacity:1" d="M1.5 1.5v458.868c0 166.31 134.315 301.132 300 301.132s300-134.821 300-301.132V1.5H1.5z"/></g></svg>

<?xml version="1.0" encoding="UTF-8" standalone="no"?>
<svg
   xmlns:dc="http://purl.org/dc/elements/1.1/"
   xmlns:cc="http://creativecommons.org/ns#"
   xmlns:rdf="http://www.w3.org/1999/02/22-rdf-syntax-ns#"
   xmlns:svg="http://www.w3.org/2000/svg"
   xmlns="http://www.w3.org/2000/svg"
   xmlns:xlink="http://www.w3.org/1999/xlink"
   xmlns:sodipodi="http://sodipodi.sourceforge.net/DTD/sodipodi-0.dtd"
   xmlns:inkscape="http://www.inkscape.org/namespaces/inkscape"
   height="763"
   width="603"
   version="1.0"
   id="svg20"
   sodipodi:version="0.32"
   inkscape:version="0.46"
   sodipodi:docname="Essertines-sur-Rolle-coat_of_arms.svg"
   sodipodi:docbase="C:\Documents and Settings\Steve\Bureau\Blason Villages Suisse pour Wikipédia (par Delta-9)"
   inkscape:output_extension="org.inkscape.output.svg.inkscape">
  <metadata
     id="metadata31">
    <rdf:RDF>
      <cc:Work
         rdf:about="">
        <dc:format>image/svg+xml</dc:format>
        <dc:type
           rdf:resource="http://purl.org/dc/dcmitype/StillImage" />
        <dc:date>07-AUG-2006</dc:date>
        <dc:creator>
          <cc:Agent>
            <dc:title>Jérôme BLUM (wagner51)</dc:title>
          </cc:Agent>
        </dc:creator>
        <cc:license
           rdf:resource="http://creativecommons.org/licenses/GPL/2.0/" />
        <dc:coverage />
        <dc:description>Gabarit pour le Projet:Blasons de WIkipédia</dc:description>
        <dc:subject>
          <rdf:Bag>
            <rdf:li>blason suisse modèle gabarit projet blasons</rdf:li>
          </rdf:Bag>
        </dc:subject>
        <dc:language>fr</dc:language>
        <dc:title>Gabrit d'un blason suisse</dc:title>
      </cc:Work>
      <cc:License
         rdf:about="http://creativecommons.org/licenses/GPL/2.0/">
        <cc:permits
           rdf:resource="http://web.resource.org/cc/Reproduction" />
        <cc:permits
           rdf:resource="http://web.resource.org/cc/Distribution" />
        <cc:requires
           rdf:resource="http://web.resource.org/cc/Notice" />
        <cc:permits
           rdf:resource="http://web.resource.org/cc/DerivativeWorks" />
        <cc:requires
           rdf:resource="http://web.resource.org/cc/ShareAlike" />
        <cc:requires
           rdf:resource="http://web.resource.org/cc/SourceCode" />
      </cc:License>
    </rdf:RDF>
  </metadata>
  <defs
     id="defs29"><inkscape:perspective
   sodipodi:type="inkscape:persp3d"
   inkscape:vp_x="0 : 381.5 : 1"
   inkscape:vp_y="0 : 1000 : 0"
   inkscape:vp_z="603 : 381.5 : 1"
   inkscape:persp3d-origin="301.5 : 254.33333 : 1"
   id="perspective28" />
<linearGradient
   id="linearGradient2893">
  <stop
     style="stop-color:#ffffff;stop-opacity:0.3137255;"
     offset="0"
     id="stop2895" />
  <stop
     id="stop2897"
     offset="0.19"
     style="stop-color:#ffffff;stop-opacity:0.25098041;" />
  <stop
     style="stop-color:#6b6b6b;stop-opacity:0.1254902;"
     offset="0.60000002"
     id="stop2901" />
  <stop
     style="stop-color:#000000;stop-opacity:0.1254902;"
     offset="1"
     id="stop2899" />
</linearGradient>
<linearGradient
   id="linearGradient2955">
  <stop
     style="stop-color:white;stop-opacity:0;"
     offset="0"
     id="stop2965" />
  <stop
     style="stop-color:black;stop-opacity:0.64583331;"
     offset="1"
     id="stop2959" />
</linearGradient>
<radialGradient
   inkscape:collect="always"
   xlink:href="#linearGradient2893"
   id="radialGradient3236"
   gradientUnits="userSpaceOnUse"
   gradientTransform="matrix(1.215027,1.531577e-24,1.464684e-23,1.266667,-839.1924,-490.4894)"
   cx="858.04236"
   cy="579.93323"
   fx="858.04236"
   fy="579.93323"
   r="300" />
<inkscape:perspective
   id="perspective2660"
   inkscape:persp3d-origin="297.63751 : 280.63 : 1"
   inkscape:vp_z="595.27502 : 420.94501 : 1"
   inkscape:vp_y="0 : 1000 : 0"
   inkscape:vp_x="0 : 420.94501 : 1"
   sodipodi:type="inkscape:persp3d" />

	
	
	

	
	

		
		
		
		
		
		
	</defs>
  <sodipodi:namedview
     inkscape:window-height="903"
     inkscape:window-width="1235"
     inkscape:pageshadow="2"
     inkscape:pageopacity="0.0"
     guidetolerance="10.0"
     gridtolerance="10.0"
     objecttolerance="10.0"
     borderopacity="1.0"
     bordercolor="#666666"
     pagecolor="#ffffff"
     id="base"
     inkscape:zoom="0.69069197"
     inkscape:cx="243.51343"
     inkscape:cy="420.06067"
     inkscape:window-x="20"
     inkscape:window-y="35"
     inkscape:current-layer="layer2"
     showgrid="false"
     showguides="true"
     inkscape:guide-bbox="true">
    <sodipodi:guide
       orientation="horizontal"
       position="761.5"
       id="guide1885" />
    <sodipodi:guide
       orientation="vertical"
       position="1.5"
       id="guide1887" />
    <sodipodi:guide
       orientation="horizontal"
       position="1.5"
       id="guide1889" />
    <sodipodi:guide
       orientation="vertical"
       position="601.5"
       id="guide1891" />
    <sodipodi:guide
       orientation="vertical"
       position="301.50081"
       id="guide1893" />
  </sodipodi:namedview>
  <desc
     id="desc22">Coat of Arms of Canton of Freiburg (Fribourg)</desc>
  <g
     inkscape:groupmode="layer"
     id="layer1"
     inkscape:label="Fond écu"
     style="opacity:1"
     sodipodi:insensitive="true">
    <path
       d="M 1.5000002,1.5 L 1.5000002,460.369 C 1.5000002,626.68 135.814,761.5 301.5,761.5 C 467.186,761.5 601.5,626.68 601.5,460.369 L 601.5,1.5 L 1.5000002,1.5 z"
       id="path2667"
       style="opacity:1;fill:#fcef3c" />
    <rect
       id="rect2633"
       height="249.688"
       width="600"
       y="1.5"
       x="1.5"
       style="opacity:1;fill:#5ab532" />
  </g>
  <g
     inkscape:groupmode="layer"
     id="layer2"
     inkscape:label="Meubles"
     style="opacity:1"
     sodipodi:insensitive="true">
    <g
       id="g2712">
      <path
         id="path2639"
         d="M 226.986,342.159 C 185.899,383.246 185.899,450.099 226.986,491.187 C 268.072,532.274 334.926,532.274 376.012,491.187 C 417.099,450.099 417.099,383.246 376.012,342.159 L 376.012,342.159 C 334.926,301.073 268.072,301.073 226.986,342.159 z M 236.338,481.834 C 200.409,445.903 200.409,387.442 236.338,351.512 C 272.267,315.583 330.729,315.583 366.66,351.512 C 384.623,369.477 393.607,393.074 393.607,416.673 C 393.607,440.271 384.623,463.867 366.659,481.834 C 330.73,517.763 272.268,517.763 236.338,481.834 z" />
      <path
         id="path2641"
         d="M 403.563,442.783 C 399.262,441.716 394.905,440.925 390.522,440.405 C 359.545,436.741 327.242,446.767 303.523,470.483 L 303.522,470.484 C 262.437,511.571 262.437,578.423 303.522,619.51 C 323.426,639.414 349.888,650.375 378.036,650.375 C 406.184,650.375 432.646,639.414 452.55,619.51 C 493.636,578.424 493.636,511.572 452.551,470.484 C 438.537,456.471 421.526,447.237 403.563,442.783 z M 386.086,453.24 C 390.594,453.632 395.077,454.353 399.496,455.404 C 415.522,459.215 430.719,467.36 443.196,479.838 C 479.126,515.768 479.126,574.23 443.196,610.159 C 425.79,627.563 402.649,637.149 378.035,637.149 C 353.42,637.149 330.279,627.563 312.876,610.159 C 294.911,592.192 285.929,568.596 285.929,544.998 C 285.929,521.399 294.911,497.804 312.874,479.837 C 332.886,459.827 359.884,450.962 386.086,453.24 z" />
      <path
         id="path2643"
         d="M 150.449,470.483 C 109.363,511.572 109.363,578.424 150.449,619.51 C 170.353,639.414 196.816,650.375 224.963,650.375 C 253.11,650.375 279.573,639.414 299.477,619.51 C 300.163,618.823 300.836,618.131 301.499,617.431 C 304.56,614.2 307.376,610.822 309.948,607.318 C 340.202,566.116 336.71,507.719 299.476,470.484 L 299.475,470.483 C 258.389,429.398 191.536,429.398 150.449,470.483 z M 159.802,610.159 C 123.873,574.229 123.873,515.767 159.802,479.837 C 195.731,443.908 254.193,443.908 290.123,479.837 C 308.087,497.804 317.07,521.4 317.07,544.998 C 317.07,562.936 311.879,580.873 301.499,596.337 C 298.962,600.117 296.116,603.748 292.959,607.194 C 292.04,608.198 291.094,609.186 290.123,610.159 C 272.718,627.563 249.577,637.149 224.963,637.149 C 200.349,637.149 177.208,627.563 159.802,610.159 z" />
      <path
         id="path2645"
         d="M 301.499,617.431 C 302.162,618.131 302.836,618.824 303.521,619.51 C 323.425,639.414 349.887,650.375 378.035,650.375 C 406.183,650.375 432.645,639.414 452.549,619.51 C 493.635,578.424 493.635,511.572 452.55,470.484 C 438.537,456.471 421.527,447.237 403.563,442.783 M 390.522,440.405 C 359.545,436.741 327.242,446.767 303.523,470.483 L 303.522,470.484 C 266.326,507.681 262.805,566 292.96,607.195 M 301.499,596.335 C 291.119,580.872 285.929,562.936 285.929,544.997 C 285.929,521.398 294.911,497.803 312.874,479.836 C 332.886,459.826 359.884,450.962 386.086,453.239 M 399.496,455.404 C 415.522,459.215 430.719,467.36 443.196,479.838 C 479.126,515.768 479.126,574.23 443.196,610.159 C 425.79,627.563 402.649,637.149 378.035,637.149 C 353.42,637.149 330.279,627.563 312.876,610.159 C 311.904,609.186 310.96,608.198 310.04,607.195"
         style="fill:none;stroke:#fcef3c;stroke-width:2.5" />
      <path
         id="path2647"
         d="M 301.501,472.565 C 300.838,471.864 300.163,471.17 299.477,470.484 L 299.476,470.483 C 258.39,429.398 191.536,429.398 150.449,470.483 C 109.363,511.572 109.363,578.424 150.449,619.51 C 170.353,639.414 196.816,650.375 224.963,650.375 C 253.11,650.375 279.573,639.414 299.477,619.51 C 300.163,618.823 300.836,618.131 301.499,617.431 C 304.56,614.2 307.376,610.822 309.948,607.318 C 337.041,570.421 337.071,519.732 310.039,482.803 M 301.499,493.658 C 311.879,509.121 317.07,527.06 317.07,544.998 C 317.07,562.936 311.879,580.873 301.499,596.337 C 298.962,600.117 296.116,603.748 292.959,607.194 C 292.04,608.198 291.094,609.186 290.123,610.159 C 272.718,627.563 249.577,637.149 224.963,637.149 C 200.349,637.149 177.208,627.563 159.802,610.159 C 123.873,574.229 123.873,515.767 159.802,479.837 C 195.731,443.908 254.193,443.908 290.123,479.837 C 291.094,480.81 292.04,481.796 292.959,482.802"
         style="fill:none;stroke:#fcef3c;stroke-width:2.5" />
      <path
         id="path2649"
         d="M 327.026,518.887 C 344.988,514.432 361.999,505.199 376.011,491.187 C 417.098,450.099 417.098,383.246 376.011,342.159 L 376.011,342.159 C 334.925,301.073 268.072,301.073 226.985,342.159 C 199.759,369.385 190.574,407.925 199.43,442.784 M 289.014,521.266 C 297.268,522.243 305.618,522.246 313.875,521.279 M 203.5,455.406 C 208.632,468.446 216.461,480.66 226.986,491.187 C 240.997,505.198 258.004,514.43 275.963,518.886 M 280.038,506.266 C 264.013,502.456 248.817,494.312 236.339,481.834 C 227.863,473.357 221.387,463.628 216.91,453.236 M 309.549,508.432 C 304.194,508.896 298.805,508.896 293.45,508.432 M 212.476,440.404 C 204.343,409.685 212.297,375.555 236.339,351.513 C 272.268,315.584 330.73,315.584 366.661,351.513 C 384.624,369.478 393.608,393.075 393.608,416.674 C 393.608,440.272 384.624,463.868 366.66,481.835 C 354.181,494.313 338.987,502.457 322.96,506.267"
         style="fill:none;stroke:#fcef3c;stroke-width:2.5" />
    </g>
    <line
       id="line2651"
       y2="251.188"
       x2="601.49896"
       y1="251.188"
       x1="1.5"
       style="fill:none;stroke:#000000;stroke-width:3" />
    <polygon
       id="polygon2653"
       points="502.417,63.207 487.935,28.408 301.537,105.977 115.139,28.408 100.658,63.207 252.486,126.389 100.658,189.572 115.139,224.371 301.537,146.802 487.935,224.371 502.417,189.572 350.589,126.389 502.417,63.207 "
       style="fill:#fcef3c;stroke:#000000;stroke-width:3"
       transform="translate(-3.7999758e-2,-4.5000006e-2)" />
  </g>
  <g
     inkscape:groupmode="layer"
     id="layer3"
     inkscape:label="Reflet final"
     style="display:inline"
     sodipodi:insensitive="true">
    <path
       style="fill:url(#radialGradient3236);fill-opacity:1"
       d="M 1.5,1.5 L 1.5,460.3679 C 1.5,626.67854 135.81454,761.5 301.49993,761.5 C 467.1854,761.5 601.5,626.67854 601.5,460.3679 L 601.5,1.5 L 1.5,1.5 z "
       id="path2346" />
  </g>
  <g
     inkscape:groupmode="layer"
     id="layer4"
     inkscape:label="Contour final"
     style="display:inline"
     sodipodi:insensitive="true">
    <path
       style="fill:none;fill-opacity:1;stroke:#000000;stroke-width:3;stroke-miterlimit:4;stroke-dasharray:none;stroke-opacity:1"
       d="M 1.5,1.5 L 1.5,460.36794 C 1.5,626.67854 135.81454,761.5 301.49993,761.5 C 467.1854,761.5 601.5,626.67854 601.5,460.36794 L 601.5,1.5 L 1.5,1.5 z "
       id="path3239" />
  </g>
</svg>
